package_signs/information--dead-end-right--g1.svg

<!-- Generated by IcoMoon.io -->
<svg version="1.1" xmlns="http://www.w3.org/2000/svg" width="24" height="24" viewBox="0 0 24 24">
<title>information--dead-end-right--g1</title>
<path fill="#b5c8dd" d="M0 0h0.728c-0.261 0.179-0.503 0.382-0.728 0.605v-0.605z"></path>
<path fill="#03408b" d="M0.728 0h22.687c-0.067 0.183 0.19 0.296 0.325 0.201v23.799h-23.508c0.012-0.183-0.065-0.257-0.231-0.224v-23.17c0.224-0.223 0.467-0.427 0.728-0.605M4.345 1.175c0 7.303 0 14.607 0 21.91 0.956 0.001 1.912 0.001 2.87 0 0-3.193-0.001-6.387 0-9.582 3.19 0 6.381 0 9.571 0 0.001 1.346-0.001 2.692 0.001 4.038 1.39 0.003 2.781 0 4.171 0.001 0.001-3.609 0.001-7.217 0-10.826-1.39 0.001-2.781-0.001-4.173 0.001 0 1.306 0.001 2.611 0 3.916-3.19 0-6.381 0-9.571 0-0.001-3.153 0-6.307 0-9.459-0.957-0.001-1.913-0.001-2.87 0z"></path>
<path fill="#e3eaf2" d="M23.414 0h0.325v0.201c-0.134 0.095-0.391-0.018-0.325-0.201z"></path>
<path fill="#fff" d="M4.345 1.175c0.956-0.001 1.912-0.001 2.87 0 0 3.153-0.001 6.307 0 9.459 3.19 0 6.381 0 9.571 0 0.001-1.304 0-2.61 0-3.916 1.392-0.003 2.782 0 4.173-0.001 0.001 3.609 0.001 7.217 0 10.826-1.39-0.001-2.781 0.001-4.171-0.001-0.003-1.346 0-2.692-0.001-4.038-3.19 0-6.381 0-9.571 0-0.001 3.194 0 6.389 0 9.582-0.957 0.001-1.913 0.001-2.87 0 0-7.303 0-14.607 0-21.91M17.36 7.321c-0.001 3.236-0.001 6.472 0 9.708 1.047 0.001 2.095-0.004 3.142 0.003 0.023-3.236 0.004-6.473 0.009-9.711-1.050 0-2.101-0.001-3.151 0z"></path>
<path fill="#d40303" d="M17.36 7.321c1.050-0.001 2.101 0 3.151 0-0.005 3.237 0.014 6.475-0.009 9.711-1.047-0.007-2.095-0.001-3.142-0.003-0.001-3.236-0.001-6.472 0-9.708z"></path>
<path fill="#e9eff5" d="M0 23.776c0.166-0.033 0.243 0.042 0.231 0.224h-0.231v-0.224z"></path>
</svg>

<svg xmlns="http://www.w3.org/2000/svg" width="24" height="24">
    <path fill="#b5c8dd" d="M0 0h.728A5.264 5.264 0 0 0 0 .605V0z"/>
    <path fill="#03408b" d="M.728 0h22.687c-.067.183.19.296.325.201V24H.232c.012-.183-.065-.257-.231-.224V.606C.225.383.468.179.729.001zm3.617 1.175v21.91h2.87v-9.582h9.571c.001 1.346-.001 2.692.001 4.038 1.39.003 2.781 0 4.171.001V6.716c-1.39.001-2.781-.001-4.173.001v3.916H7.214V1.174h-2.87z"/>
    <path fill="#e3eaf2" d="M23.414 0h.325v.201c-.134.095-.391-.018-.325-.201z"/>
    <path fill="#fff" d="M4.345 1.175h2.87v9.459h9.571V6.718c1.392-.003 2.782 0 4.173-.001v10.826c-1.39-.001-2.781.001-4.171-.001-.003-1.346 0-2.692-.001-4.038H7.216v9.582h-2.87V1.176zM17.36 7.321v9.708c1.047.001 2.095-.004 3.142.003.023-3.236.004-6.473.009-9.711H17.36z"/>
    <path fill="#d40303" d="M17.36 7.321h3.151c-.005 3.237.014 6.475-.009 9.711-1.047-.007-2.095-.001-3.142-.003V7.321z"/>
    <path fill="#e9eff5" d="M0 23.776c.166-.033.243.042.231.224H0v-.224z"/>
</svg>
